X: 1
T: Willie Fraser's Strathspey
C: D.A.Beaton
R: strathspey
S: handwritten MS by Barbara McOwen
Z: 2006 John Chambers <jc:trillian.mit.edu>
M: C
L: 1/8
K: D
   g | f2  d>B A>B d<f | g>e f>d ~e2 e<g | f2  d>B A>B d>e | f<a e>f ~d2 d |]
[| g | f2  d>B A>B d<f | g>e f>d ~e2 e<g | f<d e>f d>B A>F | GF ~D2 D |]
|: B | A<D F>E D>F A>f | g>e f>d ~e2 e>f | A<D F>E D>F A>F | GF ~D2 D :|
